static/man.svg

<svg width="91" height="87" viewBox="0 0 91 87" fill="none" xmlns="http://www.w3.org/2000/svg">
<path d="M42.137 0.569784C38.5959 0.985219 35.035 2.37 32.7402 4.24935C32.0874 4.78348 31.0983 5.81218 30.5443 6.54413C29.9904 7.29587 29.0804 8.18609 28.5463 8.56196C27.5176 9.25435 27.2407 9.65 27.4187 10.1446C27.5572 10.4809 28.21 10.7183 28.5067 10.5204C28.665 10.4215 28.7046 10.5204 28.6254 10.8567C28.5661 11.1139 28.4078 11.9052 28.2693 12.6174C28.0715 13.6857 27.9133 14.0022 27.3791 14.4572C26.6076 15.0902 26.5285 15.6243 27.1022 16.0398C27.5176 16.3365 27.5176 16.3563 26.4098 21.4404C22.9083 37.4841 18.5165 51.965 13.5709 63.6763L12.4433 66.347L10.3265 67.2174C9.15935 67.6724 7.24043 68.5033 6.07326 69.0572C3.60043 70.2046 3.56087 70.2639 2.31457 73.8841C1.26609 76.8911 0 83.6963 0 86.3472V87H45.5H91V86.3472C91 85.3185 90.4263 81.0257 90.0109 78.8298C89.5361 76.4163 88.6063 73.3698 87.7754 71.4904L87.1622 70.1254L84.9663 69.0967C83.7793 68.523 81.8407 67.6724 80.6735 67.1976L78.5567 66.3272L77.4291 63.6565C72.4637 51.9057 68.2896 38.1963 64.6891 21.8559L63.4626 16.3365L63.878 16.0596C64.4715 15.6243 64.3924 15.11 63.6209 14.4572C63.0867 14.0022 62.9285 13.6857 62.7307 12.6174C62.5922 11.9052 62.4339 11.1139 62.3746 10.8567C62.2954 10.5204 62.335 10.4215 62.4933 10.5204C62.8098 10.7183 63.4428 10.4809 63.5813 10.1248C63.7593 9.65 63.4033 9.15544 62.4141 8.54218C61.8998 8.20587 61.0887 7.39478 60.5546 6.66283C57.1124 1.95457 50.1291 -0.340216 42.137 0.569784ZM48.863 1.34131C52.9976 1.85565 56.0046 3.16131 58.4378 5.53522C59.3083 6.36609 59.9809 7.09804 59.9215 7.15739C59.8622 7.21674 59.3874 7.11783 58.8533 6.95957C51.7315 4.78348 39.2685 4.78348 32.1467 6.95957C31.6126 7.11783 31.1378 7.21674 31.0785 7.15739C31.0191 7.09804 31.6917 6.36609 32.5622 5.53522C35.5691 2.62718 39.5652 1.24239 45.2033 1.16326C46.2913 1.16326 47.953 1.24239 48.863 1.34131ZM53.413 7.35522C56.7761 7.88935 60.06 8.81913 61.0096 9.51152C61.2272 9.66978 61.4646 10.3028 61.6426 11.1337C61.8009 11.9052 61.9591 12.7163 62.0185 12.9735C62.1174 13.4087 62.1174 13.4087 61.3854 13.0922C56.0441 10.7578 46.4693 9.88739 38.1211 10.9557C35.2328 11.3315 31.672 12.202 30.1289 12.9141C29.5157 13.1911 29.0013 13.3889 28.9617 13.3691C28.9222 13.3098 29.2783 11.3711 29.575 10.105C29.8322 8.99718 34.2437 7.71131 39.862 7.07826C42.3348 6.80131 50.9798 6.97935 53.413 7.35522ZM50.1489 12.2217C54.6396 12.5976 58.2993 13.3889 60.6139 14.4967C61.3854 14.8528 62.1372 15.2287 62.2757 15.3276C62.3943 15.4265 63.0076 17.7807 63.6011 20.5502C66.2915 32.9143 69.1798 43.3991 72.7011 53.5674C73.6111 56.1787 76.5191 63.6763 77.3104 65.4172L77.7061 66.3074L76.895 67.4943C74.4815 71.075 69.9513 74.6952 64.2935 77.5241C60.2578 79.542 53.6109 82.0741 53.6109 81.5993C53.6109 81.4609 53.9274 79.6607 54.3033 77.6033C56.4398 66.1096 58.1807 54.3587 59.15 44.863C59.8622 37.682 60.5348 26.9004 60.5348 22.2911V20.1941L58.517 19.5809C54.1054 18.1961 50.5248 17.6817 45.4011 17.7015C40.4159 17.7015 36.8748 18.2159 32.5028 19.5809L30.4652 20.1941V22.2911C30.4652 26.9004 31.1378 37.682 31.85 44.863C32.8589 54.6752 34.6789 66.9602 36.8946 78.6715C37.1715 80.1157 37.3891 81.4411 37.3891 81.5796C37.3891 82.0741 30.7817 79.5617 26.667 77.5043C20.9893 74.6359 16.5185 71.075 14.105 67.4943L13.2939 66.3074L13.6896 65.4172C14.9359 62.6674 17.7054 55.3083 19.3078 50.5011C22.3939 41.2428 24.9657 31.767 27.3989 20.5502C27.9924 17.7807 28.6057 15.4265 28.7243 15.3276C28.8628 15.2287 29.6146 14.8528 30.4059 14.477C34.3822 12.5976 42.8096 11.6283 50.1489 12.2217ZM49.318 18.572C52.1272 18.8093 55.8661 19.5215 58.1411 20.2337L59.7435 20.748V23.0626C59.7435 29.4722 59.1302 35.2091 58.1807 37.9787C57.4289 40.1548 56.242 41.9946 54.9957 42.8848L54.422 43.2804L53.0174 42.3902C50.2478 40.59 48.1113 39.8778 45.4209 39.8976C42.7502 39.8976 40.3763 40.7483 37.4287 42.7265L36.5978 43.3002L36.0241 42.9046C32.7402 40.5702 31.2763 34.5167 31.2565 23.2604V20.7678L32.5028 20.3524C37.5672 18.7104 43.5811 18.0576 49.318 18.572ZM47.0628 43.0826C48.5663 43.2804 51.9491 44.23 52.5822 44.6257C52.958 44.8828 51.4348 46.8809 50.2478 47.6326C47.3002 49.5317 43.3239 49.4526 40.5148 47.4348C39.2487 46.5446 38.0222 44.8828 38.4178 44.6257C38.5563 44.5465 39.5059 44.1904 40.5148 43.8739C42.0578 43.3793 42.9678 43.1815 45.2033 42.9046C45.322 42.9046 46.1528 42.9837 47.0628 43.0826ZM36.222 53.0333C37.765 54.4378 40.3763 55.783 42.4337 56.238C44.6296 56.7326 47.8541 56.5743 49.872 55.882C52.8393 54.873 55.1737 53.1124 56.8948 50.6C57.4091 49.8483 57.8443 49.235 57.8839 49.2746C57.9235 49.3141 56.8948 57.3261 56.5387 59.7L56.2815 61.3617L54.4615 62.2915C48.7048 65.2193 40.95 65.0413 35.7274 61.8761L34.6789 61.2233L34.4415 59.6209C34.3228 58.7504 33.9865 56.2776 33.7293 54.1609C33.4524 52.0441 33.1754 49.9867 33.1161 49.6109C33.0172 48.9976 33.0963 49.0767 33.9667 50.4022C34.5009 51.2133 35.5098 52.4002 36.222 53.0333ZM38.1211 63.8346C43.1657 65.8128 49.7335 65.5161 54.6198 63.063L56.1628 62.2915L56.0837 62.8257C56.0243 63.1224 55.5891 65.7535 55.0946 68.7011C54.6 71.6289 53.8285 75.9811 53.3933 78.355C52.9383 80.7289 52.6217 82.727 52.6811 82.7863C52.8393 82.9248 56.1233 81.8367 59.4467 80.5311C67.4785 77.3659 73.532 73.3104 76.895 68.8396C77.5083 68.0087 78.082 67.2372 78.1611 67.158C78.2204 67.0591 79.8228 67.6526 81.722 68.4637C86.9841 70.7189 86.5489 70.442 87.2215 72.0443C87.993 73.9237 88.725 76.3965 89.1998 78.6913C89.5559 80.4915 90.2087 85.0415 90.2087 85.8328C90.2087 86.2087 89.358 86.2087 45.5 86.2087C2.69043 86.2087 0.791304 86.1889 0.791304 85.8526C0.791304 85.1602 1.365 80.9267 1.68152 79.1859C2.09696 77.0296 3.00696 73.9237 3.77848 72.0443C4.45109 70.442 4.01587 70.7189 9.27804 68.4637C11.1772 67.6526 12.7796 67.0591 12.8389 67.158C12.918 67.2372 13.4917 68.0087 14.105 68.8396C17.468 73.3104 23.5413 77.3857 31.5533 80.5311C34.8767 81.8367 38.1607 82.9248 38.3189 82.7863C38.3783 82.727 38.0617 80.7289 37.6067 78.355C37.1715 75.9811 36.4 71.6289 35.9054 68.7011C35.4109 65.7535 34.9757 63.1224 34.9163 62.8257L34.8372 62.2915L35.9648 62.8652C36.578 63.162 37.5474 63.617 38.1211 63.8346Z" fill="#1D4283"/>
</svg>

<svg width="91" height="87" fill="none" xmlns="http://www.w3.org/2000/svg"><path d="M42.137.57c-3.541.415-7.102 1.8-9.397 3.68-.653.533-1.642 1.562-2.196 2.294-.554.752-1.464 1.642-1.998 2.018-1.028.692-1.305 1.088-1.127 1.583.138.336.791.573 1.088.375.158-.098.198 0 .118.337-.059.257-.217 1.048-.356 1.76-.197 1.069-.356 1.385-.89 1.84-.771.633-.85 1.167-.277 1.583.416.297.416.316-.692 5.4-3.502 16.044-7.893 30.525-12.84 42.236l-1.127 2.671-2.117.87a78.881 78.881 0 0 0-4.253 1.84c-2.473 1.148-2.512 1.207-3.758 4.827C1.266 76.891 0 83.696 0 86.347V87h91v-.653c0-1.028-.574-5.321-.99-7.517-.474-2.414-1.404-5.46-2.235-7.34l-.613-1.365-2.196-1.028a89.108 89.108 0 0 0-4.292-1.9l-2.117-.87-1.128-2.67c-4.965-11.751-9.14-25.46-12.74-41.801l-1.226-5.52.415-.276c.594-.436.514-.95-.257-1.603-.534-.455-.693-.771-.89-1.84a82.401 82.401 0 0 0-.356-1.76c-.08-.337-.04-.435.118-.337.317.198.95-.04 1.088-.395.178-.475-.178-.97-1.167-1.583-.514-.336-1.325-1.147-1.86-1.88C57.113 1.956 50.13-.34 42.138.57zm6.726.771c4.135.515 7.142 1.82 9.575 4.194.87.831 1.543 1.563 1.483 1.622-.059.06-.534-.04-1.068-.197-7.122-2.177-19.584-2.177-26.706 0-.534.158-1.01.257-1.069.197-.059-.059.614-.79 1.484-1.622 3.007-2.908 7.003-4.293 12.641-4.372 1.088 0 2.75.08 3.66.178zm4.55 6.014c3.363.534 6.647 1.464 7.597 2.157.217.158.455.79.633 1.622.158.771.316 1.582.376 1.84.098.435.098.435-.634.118-5.34-2.334-14.916-3.205-23.264-2.136-2.888.376-6.449 1.246-7.992 1.958-.613.277-1.128.475-1.167.455-.04-.06.316-1.998.613-3.264.257-1.108 4.669-2.394 10.287-3.027 2.473-.277 11.118-.099 13.551.277zm-3.264 4.867c4.49.376 8.15 1.167 10.465 2.275.771.356 1.523.732 1.662.83.118.1.732 2.454 1.325 5.223 2.69 12.364 5.579 22.85 9.1 33.017.91 2.612 3.818 10.11 4.61 11.85l.395.89-.811 1.187c-2.413 3.581-6.944 7.201-12.602 10.03-4.035 2.018-10.682 4.55-10.682 4.075 0-.138.316-1.938.692-3.996 2.137-11.493 3.878-23.244 4.847-32.74.712-7.181 1.385-17.963 1.385-22.572v-2.097l-2.018-.613c-4.412-1.385-7.992-1.9-13.116-1.88-4.985 0-8.526.515-12.898 1.88l-2.038.613v2.097c0 4.61.673 15.391 1.385 22.572 1.009 9.812 2.829 22.097 5.045 33.808.276 1.445.494 2.77.494 2.909 0 .494-6.607-2.018-10.722-4.076-5.678-2.868-10.149-6.429-12.562-10.01l-.811-1.187.396-.89c1.246-2.75 4.015-10.109 5.618-14.916 3.086-9.258 5.658-18.734 8.09-29.95.594-2.77 1.208-5.124 1.326-5.223.139-.1.89-.475 1.682-.851 3.976-1.88 12.404-2.849 19.743-2.255zm-.831 6.35c2.81.237 6.548.95 8.823 1.662l1.602.514v2.315c0 6.41-.613 12.146-1.562 14.916-.752 2.176-1.939 4.016-3.185 4.906l-.574.395-1.405-.89c-2.77-1.8-4.906-2.512-7.596-2.492-2.67 0-5.045.85-7.992 2.828l-.831.574-.574-.395c-3.284-2.335-4.748-8.388-4.768-19.645v-2.492l1.247-.416c5.064-1.642 11.078-2.294 16.815-1.78zm-2.255 24.51c1.503.198 4.886 1.148 5.52 1.544.375.257-1.148 2.255-2.335 3.007-2.948 1.899-6.924 1.82-9.733-.198-1.266-.89-2.493-2.552-2.097-2.81.138-.078 1.088-.435 2.097-.751 1.543-.495 2.453-.693 4.688-.97.119 0 .95.08 1.86.179zm-10.841 9.951c1.543 1.405 4.154 2.75 6.212 3.205 2.196.495 5.42.336 7.438-.356 2.967-1.009 5.302-2.77 7.023-5.282.514-.752.95-1.365.989-1.325.04.04-.99 8.051-1.345 10.425l-.258 1.662-1.82.93c-5.756 2.927-13.511 2.75-18.734-.416l-1.048-.653-.238-1.602c-.118-.87-.455-3.343-.712-5.46a382.04 382.04 0 0 0-.613-4.55c-.099-.613-.02-.534.85.791.535.811 1.544 1.998 2.256 2.631zm1.9 10.802c5.044 1.978 11.611 1.681 16.498-.772l1.543-.772-.08.535c-.059.296-.494 2.928-.988 5.875a849.591 849.591 0 0 1-1.702 9.654c-.455 2.374-.771 4.372-.712 4.431.158.139 3.442-.95 6.766-2.255 8.031-3.165 14.085-7.22 17.448-11.691.613-.831 1.187-1.603 1.266-1.682.06-.099 1.662.495 3.561 1.306 5.262 2.255 4.827 1.978 5.5 3.58.771 1.88 1.503 4.353 1.978 6.647.356 1.8 1.009 6.35 1.009 7.142 0 .376-.851.376-44.709.376-42.81 0-44.709-.02-44.709-.356 0-.693.574-4.926.89-6.667.416-2.156 1.326-5.262 2.097-7.142.673-1.602.238-1.325 5.5-3.58 1.9-.811 3.502-1.405 3.56-1.306.08.08.654.85 1.267 1.682 3.363 4.47 9.436 8.546 17.448 11.691 3.324 1.306 6.608 2.394 6.766 2.255.06-.059-.257-2.057-.712-4.431a849.591 849.591 0 0 1-1.702-9.654c-.494-2.947-.93-5.579-.989-5.875l-.079-.535 1.128.574c.613.297 1.582.752 2.156.97z" fill="#1D4283"/></svg>
